src/status/24/notification-new-10-symbolic.svg

<?xml version="1.0" encoding="UTF-8" standalone="no"?>
<svg
   xmlns:dc="http://purl.org/dc/elements/1.1/"
   xmlns:cc="http://creativecommons.org/ns#"
   xmlns:rdf="http://www.w3.org/1999/02/22-rdf-syntax-ns#"
   xmlns:svg="http://www.w3.org/2000/svg"
   xmlns="http://www.w3.org/2000/svg"
   height="24"
   width="24"
   version="1.1"
   id="svg8">
  <metadata
     id="metadata14">
    <rdf:RDF>
      <cc:Work
         rdf:about="">
        <dc:format>image/svg+xml</dc:format>
        <dc:type
           rdf:resource="http://purl.org/dc/dcmitype/StillImage" />
        <dc:title />
      </cc:Work>
    </rdf:RDF>
  </metadata>
  <defs
     id="defs12" />
  <path
     style="color:#bebebe;overflow:visible;isolation:auto;mix-blend-mode:normal;fill:#ffffff;marker:none"
     d="M 12.630859 5.0078125 C 12.083299 4.9357255 11.581856 5.3215808 11.509766 5.8691406 L 11.507812 5.8789062 C 9.6993725 6.1007614 8.2534719 7.6372079 8.0136719 9.4433594 C 8.0136719 9.4433594 7.3616256 14.401767 5.6347656 14.800781 C 5.6174656 14.809581 5.6062906 14.828211 5.5878906 14.837891 C 5.5189906 14.878631 5.45824 14.929355 5.40625 14.990234 C 5.38485 15.014654 5.36135 15.032664 5.34375 15.058594 C 5.27615 15.153564 5.2319437 15.263589 5.2148438 15.378906 C 5.1605438 15.791348 5.447925 16.166534 5.859375 16.220703 L 16.269531 17.591797 C 16.681971 17.646097 17.057028 17.357753 17.111328 16.945312 C 17.124528 16.829486 17.111033 16.71274 17.070312 16.603516 C 17.060112 16.573926 17.042697 16.549484 17.029297 16.521484 C 16.994497 16.449094 16.947075 16.383318 16.890625 16.326172 C 16.876325 16.312182 16.872822 16.290464 16.857422 16.277344 C 15.292552 15.445975 15.945313 10.488281 15.945312 10.488281 C 16.181283 8.6806162 15.182698 6.8221111 13.492188 6.140625 L 13.492188 6.1308594 C 13.564288 5.5832981 13.178409 5.0798995 12.630859 5.0078125 z M 10.361328 17.802734 C 10.515998 18.771538 11.350961 19.484853 12.332031 19.486328 C 13.119591 19.485228 13.833117 19.02183 14.154297 18.302734 L 10.361328 17.802734 z "
     id="path2-3-5-2-2-5-3" />
</svg>

<?xml version="1.0" encoding="UTF-8"?>
<svg id="svg8" width="24" height="24" version="1.1" xmlns="http://www.w3.org/2000/svg" xmlns:cc="http://creativecommons.org/ns#" xmlns:dc="http://purl.org/dc/elements/1.1/" xmlns:rdf="http://www.w3.org/1999/02/22-rdf-syntax-ns#">
 <metadata id="metadata14">
  <rdf:RDF>
   <cc:Work rdf:about="">
    <dc:format>image/svg+xml</dc:format>
    <dc:type rdf:resource="http://purl.org/dc/dcmitype/StillImage"/>
    <dc:title/>
   </cc:Work>
  </rdf:RDF>
 </metadata>
 <path id="path2-3-5-2-2-5-3" d="m12.631 5.0078c-0.54756-0.072087-1.049 0.31377-1.1211 0.86133l-0.001954 0.0097656c-1.8084 0.22186-3.2543 1.7583-3.4941 3.5645 0 0-0.65205 4.9584-2.3789 5.3574-0.0173 0.0088-0.028475 0.02743-0.046875 0.03711-0.0689 0.04074-0.12965 0.091464-0.18164 0.15234-0.0214 0.02442-0.0449 0.04243-0.0625 0.06836-0.0676 0.09497-0.11181 0.205-0.12891 0.32031-0.0543 0.41244 0.23308 0.78763 0.64453 0.8418l10.41 1.3711c0.41244 0.0543 0.7875-0.23404 0.8418-0.64648 0.0132-0.11583-2.95e-4 -0.23257-0.041016-0.3418-0.0102-0.02959-0.027615-0.054032-0.041015-0.082032-0.0348-0.07239-0.082222-0.13817-0.13867-0.19531-0.0143-0.01399-0.017803-0.035708-0.033203-0.048828-1.5649-0.83137-0.91211-5.7891-0.91211-5.7891 0.23597-1.8077-0.76261-3.6662-2.4531-4.3477v-0.0097656c0.0721-0.54756-0.31378-1.051-0.86133-1.123zm-2.2695 12.795c0.15467 0.9688 0.98963 1.6821 1.9707 1.6836 0.78756-0.0011 1.5011-0.4645 1.8223-1.1836l-3.793-0.5z" color="#bebebe" fill="#fff" style="isolation:auto;mix-blend-mode:normal"/>
</svg>
